svgs/sharp-solid/ellipsis-stroke-vertical.svg

<svg xmlns="http://www.w3.org/2000/svg" viewBox="0 0 192 512"><!--! Font Awesome Pro 6.6.0 by @fontawesome - https://fontawesome.com License - https://fontawesome.com/license (Commercial License) Copyright 2024 Fonticons, Inc. --><path d="M112 80l0 32-32 0 0-32 32 0zM80 32L32 32l0 48 0 32 0 48 48 0 32 0 48 0 0-48 0-32 0-48-48 0L80 32zm32 208l0 32-32 0 0-32 32 0zM80 192l-48 0 0 48 0 32 0 48 48 0 32 0 48 0 0-48 0-32 0-48-48 0-32 0zm0 208l32 0 0 32-32 0 0-32zM32 352l0 48 0 32 0 48 48 0 32 0 48 0 0-48 0-32 0-48-48 0-32 0-48 0z"/></svg>

<svg xmlns="http://www.w3.org/2000/svg" viewBox="0 0 192 512"><!--! Font Awesome Pro 6.4.0 by @fontawesome - https://fontawesome.com License - https://fontawesome.com/license (Commercial License) Copyright 2023 Fonticons, Inc. --><path d="M112 80v32H80l0-32 32 0zM80 32L32 32l0 48 0 32 0 48H80h32l48 0V112 80 32l-48 0L80 32zm32 208l0 32H80V240h32zM80 192H32l0 48 0 32 0 48H80h32 48V272l0-32V192l-48 0H80zm0 208h32l0 32H80V400zM32 352l0 48 0 32 0 48H80h32 48V432 400 352H112 80 32z"/></svg>
